svg/fluentui-system-icons/ic_fluent_fluid_24_regular.svg

<svg width="24" height="24" viewBox="0 0 24 24" fill="none" xmlns="http://www.w3.org/2000/svg">
<path d="M11 5H16.745C17.9876 5 18.995 6.00736 18.995 7.25V11H17.495V7.25C17.495 6.83579 17.1592 6.5 16.745 6.5H11V5ZM6.5 11V16.745C6.5 17.1592 6.83579 17.495 7.25 17.495H11V18.995H7.25C6.00736 18.995 5 17.9876 5 16.745V11H6.5ZM2 4.25C2 3.00736 3.00736 2 4.25 2H7.75C8.99264 2 10 3.00736 10 4.25V7.75C10 8.99264 8.99264 10 7.75 10H4.25C3.00736 10 2 8.99264 2 7.75V4.25ZM4.25 3.5C3.83579 3.5 3.5 3.83579 3.5 4.25V7.75C3.5 8.16421 3.83579 8.5 4.25 8.5H7.75C8.16421 8.5 8.5 8.16421 8.5 7.75V4.25C8.5 3.83579 8.16421 3.5 7.75 3.5H4.25ZM12 14.25C12 13.0074 13.0074 12 14.25 12H19.75C20.9926 12 22 13.0074 22 14.25V19.75C22 20.9926 20.9926 22 19.75 22H14.25C13.0074 22 12 20.9926 12 19.75V14.25ZM14.25 13.5C13.8358 13.5 13.5 13.8358 13.5 14.25V19.75C13.5 20.1642 13.8358 20.5 14.25 20.5H19.75C20.1642 20.5 20.5 20.1642 20.5 19.75V14.25C20.5 13.8358 20.1642 13.5 19.75 13.5H14.25Z" fill="#212121"/>
</svg>

<svg xmlns="http://www.w3.org/2000/svg" width="24" height="24"><path d="M11 5h5.745a2.25 2.25 0 0 1 2.25 2.25V11h-1.5V7.25a.75.75 0 0 0-.75-.75H11V5Zm-4.5 6v5.745c0 .414.336.75.75.75H11v1.5H7.25A2.25 2.25 0 0 1 5 16.745V11h1.5ZM2 4.25A2.25 2.25 0 0 1 4.25 2h3.5A2.25 2.25 0 0 1 10 4.25v3.5A2.25 2.25 0 0 1 7.75 10h-3.5A2.25 2.25 0 0 1 2 7.75v-3.5Zm2.25-.75a.75.75 0 0 0-.75.75v3.5c0 .414.336.75.75.75h3.5a.75.75 0 0 0 .75-.75v-3.5a.75.75 0 0 0-.75-.75h-3.5ZM12 14.25A2.25 2.25 0 0 1 14.25 12h5.5A2.25 2.25 0 0 1 22 14.25v5.5A2.25 2.25 0 0 1 19.75 22h-5.5A2.25 2.25 0 0 1 12 19.75v-5.5Zm2.25-.75a.75.75 0 0 0-.75.75v5.5c0 .414.336.75.75.75h5.5a.75.75 0 0 0 .75-.75v-5.5a.75.75 0 0 0-.75-.75h-5.5Z"/></svg>
